.icons/Gruvbox-Plus-Dark/apps/16/cerebro.svg

<svg width="16" height="16" version="1.1" xmlns="http://www.w3.org/2000/svg">
  <defs>
    <style type="text/css" id="current-color-scheme">.ColorScheme-Text { color:#ebdbb2; } .ColorScheme-Highlight { color:#458588; }</style>
  </defs>
  <path class="ColorScheme-Text" fill="currentColor" d="m5 6.25 3.25-1.95 2.625 1.575-0.875 1.625-1.75-1.15-1.25 0.75v1.8l1.25 0.75 1.75-1.15 0.875 1.625-2.625 1.575-3.25-2v-3.45zm-2.5-1.75 5.75-3.5 5.25 3.25-0.75 1.5-4.5-2.75-4.25 2.5v5l4.25 2.5 4.5-2.8 0.75 1.55-5.25 3.25-5.75-3.5v-7z"/>
</svg>

<svg xmlns="http://www.w3.org/2000/svg" style="isolation:isolate" width="16" height="16" viewBox="0 0 16 16">
 <defs>
  <style id="current-color-scheme" type="text/css">
   .ColorScheme-Text { color:#ebdbb2; } .ColorScheme-Highlight { color:#458588; }
  </style>
  <linearGradient id="arrongin" x1="0%" x2="0%" y1="0%" y2="100%">
   <stop offset="0%" style="stop-color:#d79921; stop-opacity:1"/>
   <stop offset="100%" style="stop-color:#b57614; stop-opacity:1"/>
  </linearGradient>
  <linearGradient id="aurora" x1="0%" x2="0%" y1="0%" y2="100%">
   <stop offset="0%" style="stop-color:#83a598; stop-opacity:1"/>
   <stop offset="100%" style="stop-color:#b16286; stop-opacity:1"/>
  </linearGradient>
  <linearGradient id="fitdance" x1="0%" x2="0%" y1="0%" y2="100%">
   <stop offset="0%" style="stop-color:#8ec07c; stop-opacity:1"/>
   <stop offset="100%" style="stop-color:#458588; stop-opacity:1"/>
  </linearGradient>
  <linearGradient id="oomox" x1="0%" x2="0%" y1="0%" y2="100%">
   <stop offset="0%" style="stop-color:#458588; stop-opacity:1"/>
   <stop offset="100%" style="stop-color:#928374; stop-opacity:1"/>
  </linearGradient>
  <linearGradient id="rainblue" x1="0%" x2="0%" y1="0%" y2="100%">
   <stop offset="0%" style="stop-color:#b8bb26; stop-opacity:1"/>
   <stop offset="100%" style="stop-color:#076678; stop-opacity:1"/>
  </linearGradient>
  <linearGradient id="sunrise" x1="0%" x2="0%" y1="0%" y2="100%">
   <stop offset="0%" style="stop-color: #fe8019; stop-opacity:1"/>
   <stop offset="100%" style="stop-color: #fabd2f; stop-opacity:1"/>
  </linearGradient>
  <linearGradient id="telinkrin" x1="0%" x2="0%" y1="0%" y2="100%">
   <stop offset="0%" style="stop-color: #83a598; stop-opacity:1"/>
   <stop offset="100%" style="stop-color: #83a598; stop-opacity:1"/>
  </linearGradient>
  <linearGradient id="60spsycho" x1="0%" x2="0%" y1="0%" y2="100%">
   <stop offset="0%" style="stop-color: #fb4934; stop-opacity:1"/>
   <stop offset="25%" style="stop-color: #fabd2f; stop-opacity:1"/>
   <stop offset="50%" style="stop-color: #fe8019; stop-opacity:1"/>
   <stop offset="100%" style="stop-color: #689d6a; stop-opacity:1"/>
  </linearGradient>
  <linearGradient id="90ssummer" x1="0%" x2="0%" y1="0%" y2="100%">
   <stop offset="0%" style="stop-color: #b16286; stop-opacity:1"/>
   <stop offset="20%" style="stop-color: #8ec07c; stop-opacity:1"/>
   <stop offset="50%" style="stop-color: #fabd2f; stop-opacity:1"/>
   <stop offset="100%" style="stop-color: #458588; stop-opacity:1"/>
  </linearGradient>
  <linearGradient id="cyberneon" x1="0%" x2="0%" y1="0%" y2="100%">
    <stop offset="0" style="stop-color:#83a598; stop-opacity:1"/>
    <stop offset="1" style="stop-color:#b16286; stop-opacity:1"/>
  </linearGradient>
  <clipPath id="_clipPath_l62f10LO2kztKH2o7hEkTVPMOVXMukdY">
   <rect width="16" height="16"/>
  </clipPath>
 </defs>
 <g clip-path="url(#_clipPath_l62f10LO2kztKH2o7hEkTVPMOVXMukdY)">
  <rect style="fill:currentColor" class="ColorScheme-Text" width="4.625" height="3.594" x="17.09" y="-.09" transform="matrix(1,0,0,1,0,0)"/>
  <path style="fill:currentColor" class="ColorScheme-Text" fill-rule="evenodd" d="M 5 6.25 L 8.25 4.3 L 10.875 5.875 L 10 7.5 L 8.25 6.35 L 7 7.1 L 7 8.9 L 8.25 9.65 L 10 8.5 L 10.875 10.125 L 8.25 11.7 L 5 9.7 L 5 6.25 Z M 2.5 4.5 L 8.25 1 L 13.5 4.25 L 12.75 5.75 L 8.25 3 L 4 5.5 L 4 10.5 L 8.25 13 L 12.75 10.2 L 13.5 11.75 L 8.25 15 L 2.5 11.5 L 2.5 4.5 Z"/>
 </g>
</svg>
